!!!OTL: Schönste von allen (2-12) S. 43
!!!id: P0885
**kern
*clefG2
*k[f#]
*G:
{8d
=1
4d
8e
8f#
=2
4g
8g}
=3
{8g
=4
8f#
8g
8a
8f#
=5
4.d}
=6
{8d
=7
4cc
8cc
8cc
=8
4b
8b}
=9
{16b
16b
=10
8a
8b
8cc
8a
=11
4.g}
=12
{8g
=13
4dd
8dd
8dd
=14
4cc
8cc}
=15
{8cc
=16
8b
8cc
8dd
8b
=17
4.a}
=18
{8a
=19
4cc
8cc
8cc
=20
4b
8b}
=21
{8b
=22
8a
8b
8cc
8a
=23
4.g}
==
*-
!!!minrhy: 16
!!!meters: 2/4 ]  ZZ[8
!!!cut: Schönste von allen (2-12) S. 43
!!!reg: Lothringen
!!!trd: PINCK, Louis: Verklingende Weisen, Bd 2, Metz 1928
!!!rhy1: X_  X__X_X_  X__X_   (x2)
!!!rhy2: X_  X_X_X_X_  X__.
!!!key: P0885  16  G 2/4 ]  ZZ[8
!!!mod: HEPTATONIK IONISCH]  AMBITUS[8
!!!kad: 1-5314231
!!!akz: -51_-7-5_43_21_54_32_43_21_
!!!fot: 'a__b__c__d__cs'ds'cv_dv_
!!!for: 'a__b__a__bv_a__b__a__b__
!!!fok: '/__\__/__\__/__\__/__\__
!! PHRAS[AUFTAKTIG]
!!!fkt: geistliche, religiöse Lieder
!! LOTH VKL
!! PR[16] 2K[14] 2G[21] 3K[2] 3G[0] 4A[5] 4Ü[0] 5A[0] 6K[2] 6G[0]
!! 7K[0] 7G[0] 8A[0] MEHR[0] SI[43] ABS[58] SR[34] SP[9]
!! ST[7] 2k[14] 2g[14] 3k[7] 3g[5] 4d[2] 4ü[0] 5d[0] 6k[0] 6g[0]
!! 7k[0] 7g[0] 8d[0] mehr[0] si[41] dm[+2] sr[28] sp[14]
!! 1F[6] 2F[62] 3F[32] 4F[0] LF[0] 2P[0] 3P[0] 4P[0] TRI[0] DF[3] AB[65]
!! TF[0] U3K[0] U3[0] U4[0] U4Ü[0] U5[0] U6K[0] U6[0] U7K[0] U7[0]
!! N1[0] N2K[0] N2[0] N3K[0] N3[3] N4[3] N4Ü[0] N5[15] N6K[0] N6[12]
!!!n7k: 0] N7[10] O1[27] O2K[0] O2[12] O3K[0] O3[14] HÖ[3
